modules/hawcons-stroke/icons/icon-44-sailing-boat-water.svg

<?xml version="1.0" encoding="UTF-8" standalone="no"?>
<svg width="32px" height="32px" viewBox="0 0 32 32" version="1.1" xmlns="http://www.w3.org/2000/svg" xmlns:xlink="http://www.w3.org/1999/xlink" xmlns:sketch="http://www.bohemiancoding.com/sketch/ns">
    <!-- Generator: Sketch 3.0.3 (7891) - http://www.bohemiancoding.com/sketch -->
    <title>icon 44 sailing boat water</title>
    <desc>Created with Sketch.</desc>
    <defs></defs>
    <g id="Page-1" stroke="none" stroke-width="1" fill="none" fill-rule="evenodd" sketch:type="MSPage">
        <g id="icon-44-sailing-boat-water" sketch:type="MSArtboardGroup" fill="#929292">
            <path d="M21.6711227,23 L22.0006308,23 C24.2094214,23 26,21.2046438 26,19 L25.9047619,19 L16,19 L16,19 L16,4 L15,4 L15,19 L5.0952381,19 L5.00000001,19 C5.00000001,19.8760429 5.28155708,20.6863095 5.75911466,21.3452053 C6.07051515,21.1945117 6.38382737,21.0551621 6.69887349,20.9276672 C6.47079929,20.6553918 6.2903327,20.3419207 6.16995453,20 L6.16995453,20 L10.5440362,20 C11.111292,19.9570487 11.681647,19.956152 12.2541648,20 L24.8288165,20 C24.4165877,21.1637343 23.3056524,22 21.9998779,22 L18.0888705,22 C19.3098401,22.5757707 20.5056008,22.8990317 21.6711227,23 L21.6711227,23 L21.6711227,23 Z M26,18 L17,18 L17,9 L26,18 L26,18 Z M23.5,17 L18,17 L18,11.5 L23.5,17 L23.5,17 Z M8.00000001,9.5 C5.00000001,14.5 5.00000001,18 5.00000001,18 L14,18 C14,18 13,16.5 13,12 C13,7.5 14,4 14,4 C14,4 11,4.5 8.00000001,9.5 L8.00000001,9.5 Z M8.39678964,10.809021 C6.10000611,15.1685181 6.10000611,17.0000004 6.10000611,17.0000004 L12.6000061,17 C12.6000061,17 11.9999999,15.1912838 11.9999999,12.0000001 C11.9999999,8.80871636 12.600006,5.77172852 12.600006,5.77172852 C12.600006,5.77172852 10.3596479,7.0833435 8.39678964,10.809021 L8.39678964,10.809021 Z M3.00000001,24.0002765 C3.43236755,23.6808784 3.90145718,23.366461 4.40449508,23.0662609 C8.43642716,20.6601079 12.8459287,20.1013697 17.2243154,22.5642122 C21.2454892,24.8261225 25.0104996,24.3253524 28.3445677,22.1119187 C28.9676127,21.6982892 29.5218456,21.2553569 30,20.8128626 L30,22.1351685 C29.658944,22.4118442 29.2911141,22.6838309 28.8976618,22.9450375 C25.2756119,25.3496576 21.1192781,25.9024762 16.7340541,23.4357878 C12.7121486,21.1734659 8.66913991,21.685765 4.91695259,23.9249735 C4.20432768,24.3502497 3.56383784,24.8059828 3.00635225,25.2609895 C3.00423059,25.2627211 3.00211317,25.2644502 3,25.2661767 L3.00000001,24.0002765 L3.00000001,24.0002765 L3.00000001,24.0002765 Z M5.97918473,25.2315158 C9.57096739,23.5663353 13.4094518,23.4183515 17.2243154,25.5642122 C20.7057597,27.5225247 23.9951911,27.4100099 26.9791847,25.9080898 L26.9791847,27.0171869 C23.8363841,28.4505192 20.3636203,28.4774188 16.7340541,26.4357878 C13.0890325,24.3854631 9.42667744,24.6141165 5.97918473,26.3418345 L5.97918473,25.2315158 L5.97918473,25.2315158 L5.97918473,25.2315158 Z" id="sailing-boat-water" sketch:type="MSShapeGroup"></path>
        </g>
    </g>
</svg>

<svg width="32" height="32" xmlns="http://www.w3.org/2000/svg"><path d="M21.671 23h.33C24.209 23 26 21.205 26 19H16V4h-1v15H5c0 .876.282 1.686.76 2.345.31-.15.624-.29.939-.417A2.992 2.992 0 0 1 6.17 20h4.374a11.247 11.247 0 0 1 1.71 0H24.83a3.004 3.004 0 0 1-2.83 2h-3.91c1.22.576 2.417.899 3.582 1zM26 18h-9V9l9 9zm-2.5-1H18v-5.5l5.5 5.5zM8 9.5c-3 5-3 8.5-3 8.5h9s-1-1.5-1-6 1-8 1-8-3 .5-6 5.5zm.397 1.309C6.1 15.169 6.1 17 6.1 17h6.5s-.6-1.809-.6-5 .6-6.228.6-6.228-2.24 1.311-4.203 5.037zM3 24c.432-.32.901-.634 1.404-.934 4.032-2.406 8.442-2.965 12.82-.502 4.021 2.262 7.786 1.761 11.12-.452a13.166 13.166 0 0 0 1.656-1.3v1.323c-.341.277-.709.549-1.102.81-3.622 2.405-7.779 2.957-12.164.49-4.022-2.262-8.065-1.75-11.817.49A15.997 15.997 0 0 0 3 25.266V24zm2.98 1.232c3.591-1.666 7.43-1.814 11.244.332 3.482 1.959 6.771 1.846 9.755.344v1.11c-3.143 1.433-6.615 1.46-10.245-.582-3.645-2.05-7.307-1.822-10.755-.094v-1.11z" fill="#929292" fill-rule="evenodd"/></svg>
